svg/editor/text_direction_right_fill.svg

<svg xmlns="http://www.w3.org/2000/svg" width="24" height="24" viewBox="0 0 24 24"><g fill="none" fill-rule="evenodd"><path d="M24,0 L24,24 L0,24 L0,0 L24,0 Z M12.5935,23.2578 L12.5819,23.2595 L12.5109,23.295 L12.4919,23.2987 L12.4767,23.295 L12.4057,23.2595 C12.3958,23.2564 12.387,23.259 12.3821,23.2649 L12.378,23.2758 L12.3609,23.7031 L12.3659,23.7235 L12.3769,23.7357 L12.4805,23.8097 L12.4953,23.8136 L12.5071,23.8097 L12.6107,23.7357 L12.6233,23.7197 L12.6267,23.7031 L12.6096,23.2758 C12.6076,23.2657 12.601,23.2593 12.5935,23.2578 Z M12.8584,23.1453 L12.8445,23.1473 L12.6598,23.2397 L12.6499,23.2499 L12.6472,23.2611 L12.6651,23.6906 L12.6699,23.7034 L12.6784,23.7105 L12.8793,23.8032 C12.8914,23.8069 12.9022,23.803 12.9078,23.7952 L12.9118,23.7812 L12.8777,23.1665 C12.8753,23.1546 12.8674,23.147 12.8584,23.1453 Z M12.143,23.1473 C12.1332,23.1424 12.1222,23.1453 12.1156,23.1526 L12.1099,23.1665 L12.0758,23.7812 C12.0751,23.7927 12.0828,23.8019 12.0926,23.8046 L12.1083,23.8032 L12.3092,23.7105 L12.3186,23.7024 L12.3225,23.6906 L12.3404,23.2611 L12.3372,23.2485 L12.3278,23.2397 L12.143,23.1473 Z"/><path fill="#09244B" d="M18.9393,15.818 L21.0607,17.9393 C21.6464,18.5251 21.6464,19.4749 21.0607,20.0607 L18.9393,22.182 C18.3536,22.7678 17.4038,22.7678 16.818,22.182 C16.3632,21.7272 16.2615,21.0529 16.513,20.5 L7,20.5 C6.17157,20.5 5.5,19.8284 5.5,19 C5.5,18.1716 6.17157,17.5 7,17.5 L16.513,17.5 C16.2615,16.9471 16.3632,16.2728 16.818,15.818 C17.4038,15.2322 18.3536,15.2322 18.9393,15.818 Z M17,1.5 C17.8284,1.5 18.5,2.17157 18.5,3 C18.5,3.82843 17.8284,4.5 17,4.5 L17,15 C17,15.8284 16.3284,16.5 15.5,16.5 C14.6716,16.5 14,15.8284 14,15 L14,4.5 L13,4.5 L13,15 C13,15.8284 12.3284,16.5 11.5,16.5 C10.6716,16.5 10,15.8284 10,15 L10,12.5 C6.96243,12.5 4.5,10.0376 4.5,7 C4.5,3.96243 6.96243,1.5 10,1.5 L17,1.5 Z M10,4.5 C8.61929,4.5 7.5,5.61929 7.5,7 C7.5,8.3254816 8.53153766,9.41003853 9.83562452,9.49468231 L10,9.5 L10,4.5 Z"/></g></svg>

<svg xmlns="http://www.w3.org/2000/svg" width="24" height="24"><g fill="none" fill-rule="evenodd"><path d="M24 0v24H0V0zM12.594 23.258l-.012.002-.071.035-.02.004-.014-.004-.071-.036c-.01-.003-.019 0-.024.006l-.004.01-.017.428.005.02.01.013.104.074.015.004.012-.004.104-.074.012-.016.004-.017-.017-.427c-.002-.01-.009-.017-.016-.018m.264-.113-.014.002-.184.093-.01.01-.003.011.018.43.005.012.008.008.201.092c.012.004.023 0 .029-.008l.004-.014-.034-.614c-.003-.012-.01-.02-.02-.022m-.715.002a.023.023 0 0 0-.027.006l-.006.014-.034.614c0 .012.007.02.017.024l.015-.002.201-.093.01-.008.003-.011.018-.43-.003-.012-.01-.01z"/><path fill="#09244B" d="m18.94 15.818 2.12 2.121a1.5 1.5 0 0 1 0 2.122l-2.12 2.121a1.5 1.5 0 0 1-2.427-1.682H7a1.5 1.5 0 0 1 0-3h9.513a1.5 1.5 0 0 1 2.426-1.682M17 1.5a1.5 1.5 0 0 1 0 3V15a1.5 1.5 0 0 1-3 0V4.5h-1V15a1.5 1.5 0 0 1-3 0v-2.5a5.5 5.5 0 1 1 0-11zm-7 3a2.5 2.5 0 0 0-.164 4.995L10 9.5z"/></g></svg>
